X:3195
T:Colledge Hornpipe. JC.197
M:C
L:1/8
Q:160
S:John Clare,Poet,Helpstone (1793-1864)
R:Hornpipe
O:England
A:Northamptonshire
N:
Z:P Headford
K:Bb
{c}BA|B2B,4FE|DFB4((3dcB)|c2C2C2cB|Acf4ga|!
bagf gfed|ecdB BAGF|GBAc Bdce|d2B2B2|!
|FE|DFBF DFBF|G2E2E2GF|=EGcG EGcG|A2F2F2ed|!
e2g2gfed|ecdB BAGF|GBAc Bdce|d2B2B2|]


